X:1
T:Title
%%score { ( 1 4 ) | ( 2 3 ) }
L:1/8
M:4/4
K:D
V:1 treble nm="Grand Piano"
V:4 treble 
V:2 bass 
V:3 bass 
V:1
 z4 z2[Q:1/4=100] DE | F2 F2 F2 ED | [DFA]2 [CFA][EGA] [DFA]2[K:bass] [F,D][CE] | %3
 [A,DF]2 [A,DF][A,DF] [A,DF]2 [A,EG]>[A,DF] | [A,CE]6 [F,D][K:treble]E | F2 F2 F2 ED | %6
 A2 z2 z4[K:bass] | [A,DF]2 [B,DG][A,DF] [G,CE]2 [A,CF]>[K:bass][G,CE] |[M:3/4] [F,D]6 | %9
[M:1/4][K:treble] [FA][FA] |[M:4/4] [GB]2 z2 z4 | [FA]2 [FA]>[=F^G] [^FA]2 DE | %12
 F2 [GB][FA] [GB]2 [FA]>A | E6 DE | F2 z2 z4 | [DFA]2 [CEA][EGA] [DFA]2[K:bass] [F,D][G,CE] | %16
 [A,DF]2 [B,DG][A,DF] [G,CE]2 [A,CF]>[K:bass][G,CE] |[M:3/4] [F,D]6 |] %18
V:2
 z4 z2 [D,F,][D,G,C] | [D,A,D]2 [D,A,D]2 [D,A,D]2 [G,C]F, | z4 z2 D,2 | D,2 D,D, D,2 C,>D, | %4
 A,,6 z [G,C] | [D,A,D]2 [D,A,D]2 [D,A,D]2 [D,G,C][D,F,] | [F,D]DA,,A,, D,2 D,D, | %7
 D,2 D,D, A,,2 A,,>A,, |[M:3/4] D,6 |[M:1/4] [D,D]2 | %10
[M:4/4] [G,D]>G,[K:treble] [G,DG]>[G,DG] [G,DG]2 DD | [D,D]2 [D,D]>[D,D] [D,D]2 D,-[D,G,C] | %12
 [D,A,D]2 [D,D][D,D] [D,D]2 [D,D]>[F,A,D] | [A,C]6 [D,F,][D,G,C] | %14
 D->[D,D] [D,A,D]>[D,A,D] [D,A,D]2 [G,C]F, | D,2 A,,A,, D,2 D,D, | D,2 D,D, A,,2 A,,>A,, | %17
[M:3/4] D,6 |] %18
V:3
 x8 | z4 z2 D,2 | D,2 A,,A,, D,2 z G, | x8 | z4 z2 D,2 | x8 | D,2 z2 z4 | x8 |[M:3/4] x6 | %9
[M:1/4] x2 |[M:4/4] z4[K:treble] z2 [G,B,]2 | z4 z2 .F,2 | x8 | x8 | [D,A,]2 z2 z2 D,2 | x8 | x8 | %17
[M:3/4] x6 |] %18
V:4
 x8 | x8 | x6[K:bass] x2 | x8 | x7[K:treble] x | x8 | z F[CEA][EGA] [DFA]2[K:bass] [F,D][G,CE] | %7
 x15/2[K:bass] x/ |[M:3/4] x6 |[M:1/4][K:treble] x2 |[M:4/4] z z/ D/ B>^A B2 GG | x8 | x8 | x8 | %14
 z z/ A,/ F>F F2 ED | x6[K:bass] x2 | x15/2[K:bass] x/ |[M:3/4] x6 |] %18

